front/main/app/symbols/infobox-builder/row-block.svg

<svg width="30px" height="28px" viewBox="0 0 30 28" version="1.1"
     xmlns="http://www.w3.org/2000/svg">
    <g stroke="none" stroke-width="1" fill-rule="evenodd">
        <g transform="translate(-96.000000, -543.000000)">
            <g transform="translate(96.000000, 543.000000)">
                <path d="M0,8 L29.9920825,8 L29.9920825,20.5 L0,20.5 L0,8 Z M12.4035088,16 L24.9298246,16 C25.3372982,16 25.6666667,15.66475 25.6666667,15.25 L25.6666667,13.75 C25.6666667,13.33525 25.3372982,13 24.9298246,13 L12.4035088,13 C11.9960351,13 11.6666667,13.33525 11.6666667,13.75 L11.6666667,15.25 C11.6666667,15.66475 11.9960351,16 12.4035088,16 Z M4.6875,16.3333333 L7.8125,16.3333333 C8.10052083,16.3333333 8.33333333,16.1005208 8.33333333,15.8125 L8.33333333,12.6875 C8.33333333,12.3994792 8.10052083,12.1666667 7.8125,12.1666667 L4.6875,12.1666667 C4.39947917,12.1666667 4.16666667,12.3994792 4.16666667,12.6875 L4.16666667,15.8125 C4.16666667,16.1005208 4.39947917,16.3333333 4.6875,16.3333333 Z"/>
                <rect x="0" y="3" width="30" height="2.5"/>
                <rect x="27" y="0" width="3" height="3"/>
                <rect x="27" y="25" width="3" height="3"/>
                <rect x="0" y="0" width="3" height="3"/>
                <rect x="0" y="25" width="3" height="3"/>
                <rect x="0" y="23" width="30" height="2.5"/>
            </g>
        </g>
    </g>
</svg>

<?xml version="1.0" encoding="UTF-8" standalone="no"?>
<svg width="30px" xmlns="http://www.w3.org/2000/svg" viewBox="0 0 30 28" version="1.1" height="28px">
 <g fill-rule="evenodd">
  <g transform="translate(-96 -543)">
   <g transform="translate(96 543)">
    <path d="m0 8h29.992v12.5h-29.992v-12.5zm12.404 8h12.526c0.407 0 0.737-0.335 0.737-0.75v-1.5c0-0.415-0.33-0.75-0.737-0.75h-12.526c-0.408 0-0.737 0.335-0.737 0.75v1.5c0 0.415 0.329 0.75 0.737 0.75zm-7.7165 0.333h3.125c0.288 0 0.5208-0.232 0.5208-0.521v-3.124c0-0.289-0.2328-0.521-0.5208-0.521h-3.125c-0.288 0-0.5208 0.232-0.5208 0.521v3.124c0 0.289 0.2328 0.521 0.5208 0.521z"/>
    <rect y="3" x="0" height="2.5" width="30"/>
    <rect y="0" x="27" height="3" width="3"/>
    <rect y="25" x="27" height="3" width="3"/>
    <rect y="0" x="0" height="3" width="3"/>
    <rect y="25" x="0" height="3" width="3"/>
    <rect y="23" x="0" height="2.5" width="30"/>
   </g>
  </g>
 </g>
</svg>
